X:1
T:An Der Schönen Blauen Donau
T:On the Beautiful Blue Danube
T:Johann Strauss
T:Arrangement for piano solo not credited
%%score { ( 1 4 ) | ( 2 3 ) }
L:1/8
Q:1/4=60
M:6/8
K:A
V:1 treble nm="Piano"
V:4 treble 
V:2 bass 
V:3 bass 
V:1
"_Introd'n""^Slow"!ppp! [ce]/4A/4[ce]/4A/4[ce]/4A/4[ce]/4A/4[ce]/4A/4[ce]/4A/4 [ce]/4A/4[ce]/4A/4[ce]/4A/4[ce]/4A/4[ce]/4A/4[ce]/4A/4 | %1
w: |
 [ce]/4A/4[ce]/4A/4[ce]/4A/4[ce]/4A/4[ce]/4A/4[ce]/4A/4 [ce]/4A/4[ce]/4A/4[ce]/4A/4[ce]/4A/4[ce]/4A/4[ce]/4A/4 | %2
w: |
 [ce]/4A/4[ce]/4A/4[ce]/4A/4[ce]/4A/4[ce]/4A/4[ce]/4A/4 [ce]/4A/4[ce]/4A/4[ce]/4A/4[ce]/4A/4[ce]/4A/4[ce]/4A/4 | %3
w: |
 [ce]/4A/4[ce]/4A/4[ce]/4A/4[ce]/4A/4[ce]/4A/4[ce]/4A/4 [ce]/4A/4[ce]/4A/4[ce]/4A/4[ce]/4A/4[ce]/4A/4[ce]/4A/4 | %4
w: |
 [Be]/4G/4[Be]/4G/4[Be]/4G/4[Be]/4G/4[Be]/4G/4[Be]/4G/4 [Be]/4G/4[Be]/4G/4[Be]/4G/4[Be]/4G/4[Be]/4G/4[Be]/4G/4 | %5
w: |
 [Be]/4G/4[Be]/4G/4[Be]/4G/4[Be]/4G/4[Be]/4G/4[Be]/4G/4 [Be]/4G/4[Be]/4G/4[Be]/4G/4[Be]/4G/4[Be]/4G/4[Be]/4G/4 | %6
w: |
 [Bdf]/4G/4[Bdf]/4G/4[Bdf]/4G/4[Bdf]/4G/4[Bdf]/4G/4[Bdf]/4G/4 [Bdf]/4G/4[Bdf]/4G/4[Bdf]/4G/4[Bdf]/4G/4[Bdf]/4G/4[Bdf]/4G/4 | %7
w: |
 [Bdf]/4G/4[Bdf]/4G/4[Bdf]/4G/4[Bdf]/4G/4[Bdf]/4G/4[Bdf]/4G/4!<(! [Bdf]/4G/4[Bdf]/4G/4[Bdf]/4G/4[Bdf]/4G/4[Bdf]/4G/4[Bdf]/4G/4!<)! | %8
w: |
!pp! [cf]/4A/4[cf]/4A/4[cf]/4A/4[cf]/4A/4[cf]/4A/4[cf]/4A/4 [cf]/4A/4[cf]/4A/4[cf]/4A/4[cf]/4A/4[cf]/4A/4[cf]/4A/4 | %9
w: |
 [ce]/4A/4[ce]/4A/4[ce]/4A/4[ce]/4A/4[ce]/4A/4[ce]/4A/4!<(! [ce]/4A/4[ce]/4A/4[ce]/4A/4[ce]/4A/4[ce]/4A/4[ce]/4A/4!<)! | %10
w: |
!pp! [fa]/4d/4[fa]/4d/4[fa]/4d/4[fa]/4d/4[fa]/4d/4[fa]/4d/4 [fa]/4d/4[fa]/4d/4[fa]/4d/4[fa]/4d/4[fa]/4d/4[fa]/4d/4 | %11
w: |
 [fa]/4d/4[fa]/4d/4[fa]/4d/4[fa]/4d/4[fa]/4d/4[fa]/4d/4 [fa]/4d/4[fa]/4d/4[fa]/4d/4[fa]/4d/4[fa]/4d/4[fa]/4d/4 | %12
w: |
 [=fa]/4d/4[fa]/4d/4[fa]/4d/4[fa]/4d/4[fa]/4d/4[fa]/4d/4!>(! [fa]/4d/4[fa]/4d/4[fa]/4d/4[fa]/4d/4[fa]/4d/4[fa]/4d/4!>)! | %13
w: |
!pp! [=fa]/4d/4[fa]/4d/4[fa]/4d/4[fa]/4d/4[fa]/4d/4[fa]/4d/4 [fa]/4d/4[fa]/4d/4[fa]/4d/4[fa]/4d/4[fa]/4d/4[fa]/4d/4 | %14
w: |
 a/4c/4a/4c/4a/4c/4a/4c/4a/4c/4a/4c/4 a/4c/4a/4c/4a/4c/4a/4c/4a/4c/4a/4c/4 | %15
w: |
 a/4c/4a/4c/4a/4c/4a/4c/4a/4c/4a/4c/4 a/4c/4a/4c/4a/4c/4a/4c/4a/4c/4a/4c/4 | %16
w: |
 a/4c/4a/4c/4a/4c/4a/4c/4a/4c/4a/4c/4 a/4c/4a/4c/4a/4c/4a/4c/4a/4c/4a/4c/4 | %17
w: |
 a/4c/4a/4c/4a/4c/4a/4c/4a/4c/4a/4c/4!>(! a/4c/4a/4c/4a/4c/4a/4c/4a/4c/4a/4c/4!>)! | %18
w: |
!ppp! [de]/4G/4[de]/4G/4[de]/4G/4[de]/4G/4[de]/4G/4[de]/4G/4 [de]/4G/4[de]/4G/4[de]/4G/4[de]/4G/4[de]/4G/4[de]/4G/4 | %19
w: |
 [de]/4G/4[de]/4G/4[de]/4G/4[de]/4G/4[de]/4G/4[de]/4G/4 [de]/4G/4[de]/4G/4[de]/4G/4[de]/4G/4[de]/4G/4[de]/4G/4 | %20
w: |
 [ce]/4G/4[ce]/4G/4[ce]/4G/4[ce]/4G/4[ce]/4G/4[ce]/4G/4 [ce]/4G/4[ce]/4G/4[ce]/4G/4[ce]/4G/4[ce]/4G/4[ce]/4G/4 | %21
w: |
 [Be]/4G/4[Be]/4G/4[Be]/4G/4[Be]/4G/4[Be]/4G/4[Be]/4G/4 [Be]/4G/4[Be]/4G/4[Be]/4G/4[Be]/4G/4[Be]/4G/4[Be]/4G/4 || %22
w: |
[K:D][M:3/4][Q:1/4=132]"^Allegro""^(Key Change!)" z2!mp!!<(!{/B} A^G A2 | z2{/c} B^A B2 | %24
w: |c# * *|
 z2{/d} cB c2 | d2 e2 f2 | z A{/f} e^d e2 | z2{/g} f^e f2 | z2{/g} f^e f2!<)! | %29
w: |||||
 !>!=g2 !>!a2 !>!b2 | z2!mp! ga bA | g6- | g2 ga bA | f6- | f2 fg aA | e z g z A z | d z g z A z | %37
w: ||||||||
"^ritard" c z g z A z |[Q:1/4=120] B z e z =G z | A z d z F z | G z ^c z E z | z6 | z6 | %43
w: ||||||
 !fermata!z6[Q:1/4=60] ||[M:3/4][Q:1/4=112]"^Moderato"!p! D2 F2 A2 | A6- | A6- | A2 z2 D2 | %48
w: |||||
 D2 F2 A2 | [GA-]6 | [GA-]6 | [GA]2 z2!mp! C2 | C2[Q:1/4=116] E2 B2 | B6- | B6- | B2 z2!mf! C2 | %56
w: ||||||||
 C2 E2 B2 | B6- | B6 | A2 z2!f! D2 |[Q:1/4=120]"^Allegretto" D2 F2 A2 | d6- | d6- | d2 z2 D2 | %64
w: ||||||||
 D2 F2 A2 | d6- | d6 | d2 z2!ff![Q:1/4=132]"^Allegro" [Ee]2 | [Ee]2 [Gg]2 [Bb] z |!ff! [Bb]6- | %70
w: ||||||
 [Bb]2 [^G^g]2 [Aa]2 | [ff']6- | [ff']2 [dd']2 [Ff]2 | !>!f4 e2 | !>!b4 [Aa]2 | %75
w: |||||
"^(Page Shift)" [DFAd]2 z!ff! [DFAd] [DFAd]2 ||[K:A]"^(Key Change!)"!mf! z2 [fd'] z [ec'] z |: %77
w: ||
[Q:1/4=142]"^Con brio" [ec'] z [db] z [db] z | z2 [db] z [c^a] z | [c^a] z [db] z [db] z | %80
w: |||
 z2 e!<(! z!f! e z!<)! |!>(! f4!mf! e2!>)! | z2!<(! e z!f! e z!<)! |!>(! [Bb]4!mf! [Aa]2!>)! | %84
w: ||||
!mf! z2 [fd'] z [ec'] z | [ec'] z [db] z [db] z | z2!<(! [db] z!f! [^c^a^c'] z!<)! | %87
w: |||
 [e^c'e'] z [dbd'] z [dbd'] z | z2 [^G^g] z [Bb] z | [Bb]4 [Aa]2 | [Gg]3 fdB | %91
w: ||||
 [GBdf][GBdf] [GBdf]2 [GBde]2 |1 [CEA]2!mf! [fd'] z [ec'] z :|2!ff! [CEA]2 z2!mf! [Aa]2 |: %94
w: |||
[K:D]"^(Key Change!)" [Gcg]2 z2 [Aa]2 | [G^cg]2 z2 [Aa]2 | !>![^f^f']6- | [ff']2 [ee']2 [Aa]2 | %98
w: ||||
 [Ff]2 z2 [Aa]2 | [Ff]2 z2 [Aa]2 | !>![ee']6- | [ee']2 [dd']2 [Aa]2 | [G^cg]2 z2 [Aa]2 | %103
w: |||||
 [Gcg]2 z2 [Aa]2 | !>![^f^f']6- | [ff']2 [ee']2 [Aa]2 |!<(! [Dd]2 [Ee]2!f! [Ff]2 | %107
w: ||||
 !>![=cfa]4 [Beg]2 |!ff! [Ff]!<)![Ff] [Ff]2 [^ce]/A/ z |1 [DFAd]2 z2"^Page Shift" [Aa]2 :|2 %110
w: |||
 [DFAd]2 z2!mf! [dd']2 ||[K:Bb]"^(Key Change!)" [dd']6- | [dd']2 [_e_e']2 [dd']2 | %113
w: |||
 [cc']2 [_B_b]2 [Aa]2 | [Gg]6 |{/f} [cc'] z z2 [cc']2- | [cc']f{/a} g3 f | %117
w: ||||
!>(! f2!p! [Bd]2 [df-]2!>)! | [cef]2 [Bd]2!<(! [Acf]2 |!mf! [dd']6-!<)! | [dd']2 [_e_e']2 [dd']2 | %121
w: ||||
 [cc']2 [_B_b]2 [Aa]2 | [Gg]6 |!p![Q:1/4=132]"^ritard" [^F^f]2 z2 [Ff]2 | z2 [Gg]3 [Bb] | [Aa]6- | %126
w: |||||
 [Aa]2 z2 [Aa]2 ||[K:D]"^(Key Change!)"[Q:1/4=142]"^a tempo" [G^cg]2 z2 [Aa]2 | [Gcg]2 z2 [Aa]2 | %129
w: |||
 !>![^f^f']6- | [ff']2 [ee']2 [Aa]2 | [Ff]2 z2 [Aa]2 | [Ff]2 z2 [Aa]2 | !>![ee']6- | %134
w: |||||
 [ee']2 [dd']2 [Aa]2 | [G^cg]2 z2 [Aa]2 | [Gcg]2 z2 [Aa]2 | [^f^f']6- | [ff']2 [ee']2 [Aa]2 | %139
w: |||||
!<(! [Dd]2 [Ee]2 [Ff]2!<)! |!ff! !>![=c^fa]4 [Be=g]2 | [Ff][Ff] [Ff]2 [^ce]/A/ z | %142
w: |||
"^(Page Shift)" [DFAd]2 z4 ||[K:G]"^(Key Change!)"[Q:1/4=132]"^Allegro" [B,D]2 |: [GB]2 z2 [GB]2- | %145
w: |||
 [GB]2 !>![Bd]3 [Ac] | [GB]2 [B,D]2 [B,D]2 | [B,D]4 [B,D]2 | [GB]2 z2 [GB]2- | %149
w: ||||
 [GB]2 !>![ce]3 [Bd] | [Ac]2 [DF] z [DF]2 | [DF]6 | [Ac]2 z2 [Ac]2- | [Ac]2 [df]3 [ce] | %154
w: |||||
{/[ce]} [eg]2 [GB] z [GB]2 | [GB]4!p! [GB]2 | .[EA]2 z2 .[EA]2 | .[E^A]2 z2 .[EA]2 |1 [^DFB]6- | %159
w: |||||
 [DFB]2 z2 =D2 :|2 [^DFB]6- | [DFB]2 z!mp! BcB |: BA^GABA | A=G^FG d2- | dc [Fc] z [Fc] z | %165
w: ||||||
 [Fc] z [GB] z [GB]2 |!mf! BA^GABA | A=G^FG !>![Gg-]2 | gf [df] z [df] z | [ce] z [Bd] z [Bd] z | %170
w: |||||
!f! BA^GABA | A=G^FG d2- | dc [Fc] z [Fc] z | [Fc] z [GB] z [GB]2 | BA^GABA | %175
w: |||||
!ff! A=G !>![Bb][Q:1/4=60] z !fermata!z[Q:1/4=132] g | [A=c^f]3 e=cA |1 [B,DG]2 z BcB :|2 %178
w: |||
"^(Page Shift)" [B,DG]2 z2 z2 ||[K:F]!f!"^(Key Change!)" [=B,DG]6 | [_B,_DG]6 | [_B,CG]2 CC C2 |] %182
w: ||||
 z2 z2[Q:1/4=142]"^Con brio" C2 |!<(! CF Ac!mf! f2-!<)! | f2!>(! [ce]2!mp! [_Bd]2 | %185
w: |||
 [A^c]2 [_Bd]2!>)!!p! [=ce] z | [ce]6 | [A^c]2 [_Bd]2 [=ce] z | [ce]4- [ce][GB] | %189
w: ||||
 [^G=B]2 [Ac]2 [_Bd]2 | [Ac]6 |!<(! CF A!mf!c [fa]2-!<)! | [fa]2 [eg]2 [df]2 | %193
w: ||||
 [^ce]2 [df]2 [eg] z | [eg]6 |!>(! [Ff]2!>)! A2 d2 | [Ec]2!mp! G2 A2 | [A,CF]6- | %198
w: |||||
 [A,CF]2 z2!p! C2 | CF Ac f2- | f2 [ce]2 [_Bd]2 | [A^c]2 [_Bd]2 [=ce] z | [ce]6 | %203
w: |||||
 [A^c]2 [_Bd]2 [=ce] z | [ce]4 [GB]2 | [^G=B]2 [Ac]2 [_Bd]2 | [Ac]6 |!mf! CF Ac [fa]2- | %208
w: |||||
 [fa]2 [eg]2 [df]2 | [^ce]2 [df]2 [eg] z | [eg]6 | [Ff]2 e2 d2 | %212
w: ||||
!p!!<(! Td/e/d/e/d/4e/4d/4e/4d/4e/4d/4e/4d/4e/4d/4e/4d/4e/4d/4e/4!<)! |!f! ^c2 z2 z2 | %214
w: ||
!ff! z2 c'3 =b |:!mf! [cc']6- | [cc']2 c'3 =b | [cc']6- | [cc']2 [ff']2 [Aa]2 | [Bb]3 [dd'] e2 | %220
w: ||||||
 z [Gg] [Gg]2 [Aa]2 | [Bb]3 [dd'] e2 | z2!mp!!<(! [Gg]!mf![Aa][Bb]!f![=B=b]!<)! |!ff! [cc']6- | %224
w: ||||
 [cc']2 c'3 =b | [cc']6- | [cc']2 [aa']2 [cc']2 | [=B=b]3 [ff'] [ff']2- | [ff']2 [ee']2 [dd']2 | %229
w: |||||
 [d_bd'][dbd'] [dbd']2 [cbc']2 |1 [FAcf]2 c'3 =b :|2"^(Page Shift)" [FAcf]2 z2 z2 || %232
w: |||
[K:A]"^(Key Change!)"!f! [A=c]6 | [Ad]4 [A^d]2 | [A^ce]2 ceac' | [ee'] z [dd'] z [cc'] z | %236
w: ||||
 [cc']2{/d'} c'^b c'd' | [cc'] z [=B=b] z [Aa] z | [Bc^eg][Bceg] [Bceg]2 [Bceg]2 | [Acf]2 z2 z2 | %240
w: ||||
!8va(!{/^e'} f' z z2 z2!8va)! |!8va(!{/^e'} f' z z2 z2!8va)! |!mf! A2 [^GB]2 [=G^c]2 |: %243
w: |||
 [Fd]2 F3 A | d2 F3 A | d6- | d2 c2 B2 | c2 E3 A | c2 E3 A | c6- | c2 B2 A2 | %251
w: ||||||||
!<(! [E^G]2 [GB]2!<)!!f! [e^g]2- | [eg]2!>(! [df]2 [^Gd]2 | [Ac]6-!>)! | [Ac]2 [EB]2 [CA]2 |1 %255
w: ||||
 [EG]2 [GB]2 [df]2 | [df]2 e2 G2 | A6 | A2 [^GB]2 [=G^c]2 :|2!<(! ^G2 A2 B2 | %260
w: |||||
 [FA^B]2 c2!mf! ^d2!<)! |!f! [E^Ge][Ee] [Ee]2 [Ee]2 |"^(Page Shift)" [Ee]2 [Ee]2 [Ee]2 || %263
w: |||
 [cc']2 z2 z2 | [cc']2 z2 z2 | [cc']6- | [cc']2 egab | [cc']2 z2 z2 | [cc']2 z2 z2 | [dd']6- | %270
w: |||||||
 [dd']2 f^abc' | !5![dbd']2 z2 z2 | [dbd']2 z2 z2 | [fd'f']6- | [fd'f']2 [ec'e']2 [cac']2 | %275
w: |||||
 [fd'f']6- | [fd'f']2 [ec'e']2 [dbd']2 | [cac']2 z2 z2 | z6 |!ff! [cc']2 z2 z2 | [cc']2 z2 z2 | %281
w: ||||||
 [cc']6- | [cc']2 egab | [cc']2 z2 z2 | [cc']2 z2 z2 | [dd']6- | [dd']2 f^abc' | %287
w: ||||||
!<(! [dbd']2 z2 z2!<)! | [fd'f']2 z2 z2 |!fff! [ac'e'a']6- | [ac'e'a']2 [gg']2 [ff']2 | %291
w: ||||
 [ff']2 [ee']2 [^d^d']2 | [=d=d']2 [cc']2 [Bb]2 |1 [Aa]6 |!mf! A2 [GB]2 [=Gc]2 :|3 %295
w: ||||
"^(Page Shift)" [Aa]6- | [Aa]2 z4 ||[K:D]"^(Key Change!)"[Q:1/4=132]"^a little slower" E2 | %298
w: |||
 [Ac]2 z2 [Ac]2- | [Ac]2 [ce]3 [df] | [eg]2 [Ac] z [Ac]2 | [Ac]6 | [df]2 z2 [df]2- | %303
w: |||||
 [df]2 [df]3 [eg] | [fa]2 [=c^d] z [cd]2 | [=c^d]6 |!p!!<(!{/e} [eg]2 z2 [eg]2!<)! | %307
w: ||||
 z2 [eg]3 [fa] |!mf! [gb]2 [ce]2 z2 | [eg]2 [Ac]2!>(! z2 | [ce]2 [GA] z [GB]2 | %311
w: ||||
!p! [GA]2!>)! z2!p! A2 | a z z2 z2 | z2 z2 A2 | a z z2 z2 | z2 z2 [Aa]2 | %316
w: |||||
[Q:1/4=142]"^a tempo" [Gcg]2 z2 [Aa]2 | [Gcg]2 z2 [Aa]2 | [ff']6- | [ff']2 [ee']2 [Aa]2 | %320
w: ||||
 [Ff]2 z2 [Aa]2 | [Ff]2 z2 [Aa]2 | [ee']6- | [ee']2 [dd']2 [Aa]2 | [Gcg]2 z2 [Aa]2 | %325
w: |||||
 [Gcg]2 z2 [Aa]2 | [ff']6- | [ff']2 [ee']2 [Aa]2 | [Dd]2 [Ee]2 [Ff]2 | [cfa]4 [Beg]2 | %330
w: |||||
 [Ff][Ff] [Ff]2 [=Gce]/A/ z | [DFAd]2 z2!p! [_e_e'] z | [dd'] z z2 [=c=c'] z | %333
w: |||
 [_B_b] z z2 [=c=c'] z | [Aa] z z2 [_B_b] z | [Gg]4!mf! [_b_b']2 | [aa'] z z2 [gg'] z | %337
w: ||||
 [=f=f'] z z2 [gg'] z | [ee'] z z2 [=f=f'] z |!f! [dd']4 _B=c | d=f_b=c' d'2 | d=f_b=c' d'2 | %342
w: |||||
!p! T^g/a/g/a/g/4a/4g/4a/4g/4a/4g/4a/4g/4a/4g/4a/4g/4a/4g/4a/4 | %343
w: |
 ^g/4a/4g/4a/4g/4a/4g/4a/4g/4a/4g/4a/4g/4a/4g/4a/4g/4a/4g/4a/4f/g/ |!f! a2 z2 z2 | [^cea] z z2 z2 | %346
w: |||
 [_Bdg] z z2 z2 | [G_B=c] z z2 z2 | z2 z2 =C2 ||[K:F]"^(Key Change!)"!<(! CF Ac!mp! f2-!<)! | %350
w: ||||
 f2 [ce]2 [_Bd]2 | [A^c]2 [_Bd]2 [=ce] z | [ce]6 | [A^c]2 [_Bd]2 [=ce] z | [ce]6 | %355
w: |||||
 [^G=B]2 [Ac]2 [_Bd]2 | [Ac]6 |!<(! CF Ac!mp! [fa]2-!<)! | [fa]2 [eg]2 [df]2 | %359
w: ||||
 [^ce]2 [df]2 [eg] z | [eg]6 | [Ff]2 e2 d2 | d6 |!<(! ^c2 aAaA | d2 aAaA | e2 aAaA | ^f2 aAaA!<)! | %367
w: ||||||||
!ff! g2 e'ee'e | g2 e'ee'e | g2 e'ee'e | g2 e'ee'e | [ge']2 z2 z2 | =B2 z2 z2 | %373
w: ||||||
"^(Page Shift)" ^c2[Q:1/4=104] z2 z2 ||[K:D]"^(Key Change!)"!p![Q:1/4=112]"^Moderato" D2 F2 A2 | %375
w: ||
 A6- | A6- | A2 z2 D2 | D2 F2 A2 | [GA-]6 | [GA-]6 | [GA]2 z2!mp! C2 | C2 E2 B2 | B6- | B6- | %385
w: ||||||||||
 B2 z2!mf! C2 | C2 E2 B2 | B6- | B6 | A2 z2 D2 |[Q:1/4=120]"_accel." D2 F2 A2 | d6- | d6- | %393
w: ||||||||
 d2 z2!f! D2 | D2 F2 A2 | d6- | d6 | d2 z2 [Ee]2 |[Q:1/4=132]"^accel."!ff! [Ee]2 [Gg]2 [Bb] z | %399
w: ||||||
 [Bb]6- | [Bb]2 [^G^g]2 [Aa]2 | [ff']6- | [ff']2 [dd']2 z2 | f4 e2 | b4 a2 |"^(Page Shift)" z6 | %406
w: |||||||
[Q:1/4=112]"^a tempo" D2 F2 A2 | A6 |!pp! d2 d'2 a2 | a4!p! D2 | D2 F2 A2 | =G6 |!pp! d2 b2 a2 | %413
w: |||||||
 =g4!p! B,2 | B,2 D2 G2 | G6 |!pp! e2 g2 b2 | %417
w: ||||
 Tc'/d'/c'/d'/c'/4d'/4c'/4d'/4c'/4d'/4c'/4d'/4c'/4d'/4c'/4d'/4c'/4d'/4c'/4d'/4 | %418
w: |
 c'/4d'/4c'/4d'/4c'/4d'/4c'/4d'/4c'/4d'/4c'/4d'/4c'/4d'/4c'/4d'/4c'/4d'/4c'/4d'/4b/c'/ | %419
w: |
 d'2 d2 e2 | f2 g2 ^g2 | a2 z2 z2 |!p! D2 F2 A2 | d6 |!pp! d2 f2 a2 | %425
w: ||||||
 Td'/e'/d'/e'/d'/4e'/4d'/4e'/4d'/4e'/4d'/4e'/4d'/4e'/4d'/4e'/4d'/4e'/4d'/4e'/4 |!p! D2 F2 A2 | d6 | %428
w: |||
!pp! d2 g2 b2 | Td'/e'/d'/e'/d'/4e'/4d'/4e'/4d'/4e'/4d'/4e'/4d'/4e'/4d'/4e'/4d'/4e'/4d'/4e'/4 | %430
w: ||
!p! D2 G2 B2 | B6 |!pp! e2 g2 b2 | %433
w: |||
!pp!!<(! Tc'/d'/c'/d'/c'/4d'/4c'/4d'/4c'/4d'/4c'/4d'/4c'/4d'/4c'/4d'/4c'/4d'/4c'/4d'/4 | %434
w: |
 c'/4d'/4c'/4d'/4c'/4d'/4c'/4d'/4c'/4d'/4c'/4d'/4c'/4d'/4c'/4d'/4c'/4d'/4c'/4d'/4!<)!!ff!b/c'/ | %435
w: |
!ff! !>!d'2!fff![Q:1/4=200]"^Presto" EDFE | GFBA^GA | dcedfe | gfba^ga | e'd'c'd'af | ba^gafd | %441
w: ||||||
 =gf^efdA | =edcdAF | !>![F,A,D]2 z2 z2 |!fff! !>![dfad']2 z2 z3/2[K:bass] D,/ | %445
w: ||||
[Q:1/4=60] !fermata!D,6 |] %446
w: |
V:2
!ped! z6 | z z z!ped-up![K:treble]!p!!ped! A,CE!ped-up! |!ped! z z z [ac'] z z | %3
 a z z!ped-up![K:bass]!ped! [C,E,][E,A,][A,C]!ped-up! |!ped! [D,E,B,]2 z[K:treble+8] [GBe] z z | %5
 [GBdf] z z!ped-up![K:treble]!mp! [G,B,][B,D][DF] |!ped! [DF]3[K:treble+8] [df] z z | %7
 [GB] z z!ped-up![K:treble]!mp!!ped! [G,B,][B,D][DF]!ped-up! | %8
!mf!!ped! [CF]3[K:treble+8] [Acf] z z | [Ace] z z!ped-up![K:treble]!mf!!ped! A,CE!ped-up! | %10
!f!!ped! [FA]3[K:treble+8] [fa]3 | [df]3!ped-up![K:treble]!ped! A,DF!ped-up! | %12
!ped! [=FA]3[K:treble+8]!mp! [=fa]3 |!p! [d=f]2 z!ped-up![K:treble]!ped! A,DA!ped-up! | %14
!ped! [CA]3[K:treble+8] [ea] z z | [ce] z z!ped-up![K:treble]!ped! A,CF | %16
 [A,CF]3[K:treble+8] [cf] z z | c z z!ped-up![K:treble]!ped! A,CE!ped-up! | %18
!ped! [DE]3[K:treble+8] [Ge] z z | [Gd] z z!ped-up![K:treble]!ped! E,^G,D!ped-up! | %20
!ped! [E,C]3 [gc'] z z!ped-up! |!ped! [gb] z z E,3!ped-up! || %22
[K:D][M:3/4]!p!!ped! CE"^cresc."CE!ped-up!CE |!ped! DFDF!ped-up!DF |!ped! E=GEG!ped-up!EG | %25
!ped! [A,DF] z [A,DF] z [A,DF]!ped-up! z |!ped! [A,C=G] z [A,CG] z!ped-up! [A,CG] z | %27
!ped! [DF]A[DF]A!ped-up![DF]A |!ped! !2![^DF]!1!A[^DF]!f!A!ped-up![^DF]A |!ff! [A,EG]2 z4 | z6 | %31
 z2!p! .[A,CEG]2 .[A,CEG]2 | [A,CEG]2 z2 z2 | z2 .[A,DF]2 .[A,DF]2 | [A,DF]2 z2 z2 | [A,EG]6 | %36
 [A,DG]6 | [A,CG]6 | [A,G]6 | [A,^F]6 | [A,E]6 |[K:bass]!pp! .[A,,A,]2 z2 z2 | .[G,,G,]2 z2 z2 | %43
 .[E,,E,]2 z2 !fermata!z2 ||[M:3/4] z6 |!pp!!ped! D,2 [F,A,D]2 [F,A,D]2!ped-up! | %46
!ped! D,2 [F,A,D]2 [F,A,D]2!ped-up! | D,2 [F,A,D]2 [F,A,]2 |!ped! D,2 [F,A,D]2 [F,A,D]2!ped-up! | %49
!ped! E,2 [G,A,C]2 [G,A,C]2!ped-up! |!ped! E,2 [G,A,C]2 [G,A,C]2!ped-up! | %51
 E,2 [G,A,C]2!p! [G,A,]2 |"^accel."!ped! E,2 [G,A,C]2 [G,A,C]2!ped-up! | %53
!ped! E,2 [G,A,C]2 [G,A,C]2!ped-up! |!ped! E,2 [G,A,C]2 [G,A,C]2!ped-up! | %55
!ped! E,2 [G,A,C]2!mp! [G,A,]2!ped-up! |!ped! E,2 [G,A,C]2!ped-up! [G,A,C]2 | %57
!ped! D,2 [F,A,D]2 [F,A,D]2!ped-up! |!ped! D,2 [F,A,D]2 [F,A,D]2!ped-up! | %59
 D,2 [F,A,D]2!mf! [F,A,]2 |!ped! D,2 [F,A,D]2 [F,A,D]2!ped-up! | %61
!ped! [F,,F,]2 [F,A,D]2 [F,A,D]2!ped-up! |!ped! [F,,F,]2 [F,A,D]2 [F,A,D]2!ped-up! | %63
 [F,,F,]2 [F,A,D]2 [F,A,]2 |!ped! [F,,F,]2 [F,A,D]2!ped-up! [F,A,D]2 | %65
!ped! [G,,G,]2 [B,,D,E,]2 [B,,D,E,]2!ped-up! |!ped! [G,,G,]2 [B,,D,E,]2 [B,,D,E,]2!ped-up! | %67
 [G,,B,,D,E,]2 z2!ped! E,2 | E,2 G,2 B,!ped-up! z |!f!!ped! [E,,E,]2 [G,A,C]2 [G,A,C]2!ped-up! | %70
!ped! [A,,,A,,]2 [G,A,C]2 [G,A,C]2!ped-up! |!ped! [D,,D,]2 [F,A,D]2 [F,A,D]2!ped-up! | %72
!ped! [F,,F,]2 [F,A,D]2 [F,A,D]2!ped-up! |!ff! !>![G,,B,,D,E,]6 | !>![A,,E,G,]6 | %75
!ped! [D,,D,]2 z2 [D,F,A,]2!ped-up! ||[K:A] z6 |:!mp!!ped! E,2 [^G,DE]2 [G,DE]2!ped-up! | %78
!ped! E,2 [G,DE]2 [=G,CE]2!ped-up! |!ped! E,2 [^G,DE]2 [G,DE]2!ped-up! | %80
!ped! E,2 [G,DE]2!ped-up!!mp! [G,DE]2 |!ped! A,,2 [A,CE]2!ped-up! [A,CE]2 | %82
!ped! A,,2 [A,CE]2!ped-up! [A,CE]2 |!ped! A,,2 [A,CE]2!ped-up! [A,CE]2 | %84
!mp!!ped! A,,2 [A,CE]2!ped-up! [A,CE]2 |!ped! E,2 [^G,DE]2!ped-up! [G,DE]2 | %86
!ped! E,2 [G,DE]2!mp! [=G,CE]2!ped-up! |!ped! E,2 [^G,DE]2 [G,DE]2!ped-up! | %88
!ped! E,2 [^G,B,D]2!ped-up! [^E,^G,B,D]2 |!ped! [F,C]6!ped-up! |!f! [D,F,B,]4 z2 | %91
!ff!!ped! [E,,E,]2 [G,,G,]2 [E,,E,]2!ped-up! |1 [A,,A,]2 z2 z2 :|2 [A,,A,]2 z2 z2 |: %94
[K:D]!mp!!ped! E,2 [G,A,^C]2 [G,A,C]2!ped-up! |!ped! E,2 [G,A,C]2!ped-up! [G,A,C]2 | %96
!ped! A,2 [C=G]2 [CG]2!ped-up! | A,,2 [G,A,C]2 [G,A,C]2 |!ped! D,2 [F,A,D]2 [F,A,D]2!ped-up! | %99
!ped! A,,2 [F,A,D]2 [F,A,D]2!ped-up! |!ped! D,2 [F,A,D]2 [F,A,D]2 | %101
!ped! A,,2!ped-up! [F,A,D]2 [F,A,D]2 |!ped! E,2 [G,A,C]2 [G,A,C]2!ped-up! | %103
!ped! E,2 [G,A,C]2 [G,A,C]2!ped-up! |!ped! A,2 [C=G]2 [CG]2!ped-up! | %105
!ped! A,,2 [=G,A,C]2 [G,A,C]2!ped-up! |!ped! D2 C2 =C2!ped-up! |!ped! !>!^D,4 E,2!ped-up! | %108
!ped! A,,2 [F,A,D]2!ped-up!!ped! [=G,A,C]2!ped-up! |1 [D,,D,]2 z2!mf! z2 :|2 [D,,D,]2 z2 z2 || %111
[K:Bb]!mp!!ped! B,,2 [B,DF]2 [B,DF]2!ped-up! |!ped! B,,2 [B,DF]2 [B,DF]2!ped-up! | %113
!ped! _E,2 [G,CE]2 [G,CE]2!ped-up! |!ped! _E,2 [G,CE]2 [G,CE]2!ped-up! | %115
!ped! A,2 [CEF]2 [CEF]2!ped-up! | F,2!ped! [A,EF]2 [A,EF]2!ped-up! |!ped! B,2 [DF]2 [DF]2!ped-up! | %118
!ped! F,2 F2!mp! F2!ped-up! |!mp!!ped! _B,,2 [_B,DF]2 [_B,DF]2!ped-up! | %120
!ped! _B,,2 [_B,DF]2 [_B,DF]2!ped-up! |!ped! _E,2 [G,C_E]2 [G,C_E]2!ped-up! | %122
!ped! _E,2 [G,C_E]2 [G,C_E]2!ped-up! |!ped! z2 [^F,A,D]2 [F,A,D]2!ped-up! | %124
 z2!ped! [G,B,D]2 [G,B,D]2!ped-up! |!mp!!<(!!ped! [D,^F,A,D]2 A,2!mf! A,2!ped-up!!<)! | %126
 A,2!f! A,2 A,2 ||[K:D]!mf!!ped! E,2 [G,A,C]2!ped-up! [G,A,C]2 | %128
!ped! E,2 [G,A,C]2 [G,A,C]2!ped-up! |!ped! A,2 [CG]2 [CG]2!ped-up! | %130
!ped! A,,2 [G,A,C]2 [G,A,C]2!ped-up! |!ped! D,2 [F,A,D]2 [F,A,D]2!ped-up! | %132
!ped! A,,2 [F,A,D]2 [F,A,D]2!ped-up! |!ped! D,2 [F,A,D]2 [F,A,D]2!ped-up! | %134
!ped! A,,2 [F,A,D]2 [F,A,D]2!ped-up! |!ped! E,2 [G,A,C]2 [G,A,C]2!ped-up! | %136
!ped! E,2 [G,A,C]2 [G,A,C]2!ped-up! |!ped! A,2 [CG]2 [CG]2!ped-up! | %138
!ped! A,,2 [G,A,C]2 [G,A,C]2!ped-up! |!ped! D2 C2 =C2!ped-up! |!ped! !>!^D,4 E,2!ped-up! | %141
!ped! A,,2 [F,A,D]2!ped-up!!ped! [G,A,C]2!ped-up! | [D,,D,]2 z4 ||[K:G]!mp! z2 |: %144
!p!!ped! G,,2 [G,B,D]2 [G,B,D]2!ped-up! |!ped! G,,2 [G,B,D]2 [G,B,D]2!ped-up! | %146
!ped! G,,2 [D,G,]2 [D,G,]2!ped-up! |!ped! G,,2 [D,G,]2 [D,G,]2!ped-up! | %148
!ped! G,,2 [G,B,D]2 [G,B,D]2!ped-up! |!ped! G,,2 [G,B,D]2 [G,B,D]2!ped-up! | %150
!ped! A,,2 [D,F,C]2 [D,F,C]2!ped-up! |!ped! A,,2 [D,F,C]2 [D,F,C]2!ped-up! | %152
!ped! D,2 [CDF]2 [CDF]2!ped-up! |!ped! D,2 [CDF]2 [CDF]2!ped-up! |!ped! G,2 [B,D]2 [B,D]2!ped-up! | %155
!ped! G,,2 [G,B,D]2 [G,B,D]2!ped-up! | .[C,C]2 z2 .[C,C]2 | .[C,C]2 z2 .[C,C]2 |1 %158
!ped! [B,,B,]2 ^D,2 F,2!ped-up! | B,,2 z2!mp! z2 :|2!ped! [B,,B,]2!ped-up! ^D,2 ^F,2 | %161
 B,,2 z2 z2 |:!p!!ped! C,2!ped-up! [A,CE]2 [A,CE]2 |!ped! D,2 [B,D]2!ped-up! [B,D]2 | %164
 D,2 [A,CD]2 [A,CD]2 | G,2 [B,D]2 [B,D]2 |!mp!!ped! C,2 [A,CE]2!ped-up! [A,CE]2 | %167
!ped! D,2 [B,D]2!ped-up! [B,D]2 | D,2 [CDF]2 [CDF]2 | G,2 [B,DG]2 [B,DG]2 | %170
!mf!!ped! C,2 [A,CE]2!ped-up! [A,CE]2 |!ped! D,2 [B,D]2!ped-up! [B,D]2 | D,2 [A,CD]2 [A,CD]2 | %173
 G,2 [B,D]2 [B,D]2 |!mf!!ped! C,2 [A,CE]2!ped-up! [A,CE]2 | %175
!ped! [D,G,B,D] z z2!ped-up! !fermata!z2 |!ped! [D,,D,]2!ped-up! [F,,F,]2 [D,,D,]2 |1 %177
 [G,,G,]2!mp! z2 z2 :|2!ff! [G,,G,]2 z2 z2 ||[K:F]!ped! [G,,G,]6!ped-up! |!ped! [F,,F,]6!ped-up! | %181
 [E,,E,]2 z2 z2 |]!mp! z6 |!ped! F,2 [A,CF]2 [A,CF]2!ped-up! |!ped! F,2 [A,CF]2 [A,CF]2!ped-up! | %185
!p!!ped! G,2 [_B,CE]2 [B,CE]2!ped-up! |!ped! C,2 [B,CE]2 [B,CE]2!ped-up! | %187
!ped! G,2 [B,CE]2 [B,CE]2!ped-up! |!ped! C,2 [B,CE]2 [B,CE]2!ped-up! | %189
!ped! F,2 [A,CF]2 [A,CF]2!ped-up! |!ped! F,2 [A,CF]2 [A,CF]2!ped-up! | %191
!ped! F,2 [A,CF]2 [A,CF]2!ped-up! |!ped! F,2!ped-up! [A,CF]2 [A,CF]2 | %193
!ped! B,,2 [B,DG]2 [B,DG]2!ped-up! |!ped! B,,2 [B,DG]2 [B,DG]2!ped-up! | %195
!ped! [C,F,A,]2 z2 z2!ped-up! |!ped! [C,B,]2!ped-up! z2 z2 |!ped! F,2!ped-up! A,,2 C,2 | F,,2 z4 | %199
!pp!!ped! F,2!ped-up! [A,CF]2 [A,CF]2 |!ped! F,2 [A,CF]2 [A,CF]2!ped-up! | %201
!ped! G,2 [_B,CE]2 [B,CE]2!ped-up! |!ped! C,2 [B,CE]2 [B,CE]2!ped-up! | %203
!ped! G,2 [B,CE]2 [B,CE]2!ped-up! |!ped! C,2 [B,CE]2 [B,CE]2!ped-up! | %205
!ped! F,2 [A,CF]2 [A,CF]2!ped-up! |!ped! F,2 [A,CF]2 [A,CF]2!ped-up! | %207
!mp!!ped! F,2 [A,CF]2 [A,CF]2!ped-up! |!ped! F,2 [A,CF]2 [A,CF]2!ped-up! | %209
!ped! B,,2 [B,DG]2 [B,DG]2!ped-up! |!ped! B,,2 [B,DG]2 [B,DG]2!ped-up! | [A,,D,F,]2 z2 F,2 | %212
!mp!!ped! F,2 G,2 ^G,2!ped-up! | [A,,E,A,]2 z2 z2 | [G,,B,,C,E,]2 z2 z2 |: %215
!mp!!ped! F,2 [A,CF]2 [A,CF]2!ped-up! |!ped! C,2 [A,CF]2 [A,CF]2!ped-up! | %217
!ped! F,2 [A,CF]2 [A,CF]2!ped-up! |!ped! C,2 [CFA]2 [CF]2!ped-up! | %219
!ped! G,2 [B,CE]2 [B,CE]2!ped-up! |!ped! C,2 [B,CE]2 [B,CE]2!ped-up! | %221
!ped! G,2 [B,CE]2 [B,CE]2!ped-up! |!ped! C,2 [B,CE]2 [B,CE]2!ped-up! | %223
!mf!!ped! F,2 [A,CF]2 [A,CF]2!ped-up! | C,2!ped! [A,CF]2 [A,CF]2!ped-up! | %225
!ped! F,2 [A,CF]2 [A,CF]2!ped-up! |!ped! F,2 [A,CF]2 [A,CF]2!ped-up! | %227
!ped! D,2 [F,G,=B,]2 [F,G,B,]2!ped-up! |!ped! [G,,G,]2 [F,G,=B,]2 [F,G,B,]2!ped-up! | %229
!f!!ped! [C,,C,]2 [E,,E,]2 [C,,C,]2!ped-up! |1 [F,,F,]2 z2 z2 :|2 [F,,F,]2 z2 z2 || %232
[K:A]!ped! [=F,,=F,]6!ped-up! | [=F,,=F,]4 [F,,F,]2 | [E,,E,]2!ped! z2 z2!ped-up! | z6 | %236
!ped! [^E,G,B,]6!ped-up! | [F,A,]2 z2 z2 |!ped! [C,,C,]2 [^E,,^E,]2 [C,,C,]2!ped-up! | %239
 [F,,F,]2 z2 z2 |[K:treble]!ped!{/^e} f z z2!ped-up! z2 |!ped!{/^e} f z z2!ped-up! z2 | %242
!ped! z6!ped-up! |:[K:bass]!mp!!ped! D,2 [F,A,D]2 [F,A,D]2!ped-up! | %244
!ped! D,2 [F,A,D]2 [F,A,D]2!ped-up! |!ped! D,2 [F,A,D]2 [F,A,D]2!ped-up! | %246
!ped! D,2 [F,A,]2 [F,A,]2!ped-up! |!ped! E,2 [A,C]2 [A,C]2!ped-up! | %248
!ped! E,2 [A,C]2!ped-up! [A,C]2 |!ped! E,2 [A,C]2 [A,C]2!ped-up! |!ped! E,2 A,2 A,2!ped-up! | %251
!ped! E,2!mp! [B,DE]2 [B,DE]2!ped-up! |!ped! E,2 [B,DE]2 [B,DE]2!ped-up! | %253
!mf!!ped! A,2 [CE]2 [CE]2!ped-up! | A,,2!mp!!p!!ped! A,2 A,2!ped-up! |1 %255
!ped! E,2 [G,DE]2 [G,DE]2!ped-up! |!ped! E,2 [G,DE]2 [G,DE]2!ped-up! | %257
!ped! [A,CE]2 [A,CE]2 [A,CE]2!ped-up! |!mf!!ped! z6!ped-up! :|2!mp!!ped! [B,,E,B,]2 z2 z2!ped-up! | %260
!ped! [B,,B,]2 z2!ped-up! z2 |!ped! [E,B,]2 z2!ped-up! z2 |!ped! z6!ped-up! || %263
!mf!!ped! [A,,A,]2 [A,CE]2 [A,CE]2!ped-up! |!ped! [A,,A,]2 [A,CE]2 [A,CE]2!ped-up! | %265
!ped! [A,,A,]2 [A,CE]2 [E,,E,]2!ped-up! |!ped! [A,,A,]2 [A,CE]2 [A,CE]2!ped-up! | %267
!ped! [A,,A,]2 [A,CE]2 [A,CE]2!ped-up! |!ped! [F,,F,]2 [^A,EF]2 [A,EF]2!ped-up! | %269
!ped! [B,,B,]2 [B,DF]2 [F,,F,]2!ped-up! |!ped! [B,,B,]2 [B,DF]2 [B,DF]2!ped-up! | %271
!ped! [B,,B,]2 [B,DF]2 [B,DF]2!ped-up! |!ped! [B,,B,]2 [B,DF]2 [B,DF]2!ped-up! | %273
!ped! [E,,E,]2 [A,CE]2 [A,CE]2!ped-up! | [E,,E,]2!ped! [A,CE]2 [A,CE]2!ped-up! | %275
!ped! [E,,E,]2 [G,B,D]2 [G,B,D]2!ped-up! | [E,,E,]2!ped! [G,B,D]2 [G,B,D]2!ped-up! | %277
 [A,,A,]2!mf!!<(! [E,,E,]2 [F,,F,]2!<)! | [G,,G,]2 [A,,A,]2!f! [B,,B,]2 | %279
!f!!ped! [A,,A,]2 [A,CE]2 [A,CE]2!ped-up! |!ped! [A,,A,]2 [A,CE]2 [A,CE]2!ped-up! | %281
!ped! [A,,A,]2 [A,CE]2 [E,,E,]2!ped-up! |!ped! [A,,A,]2 [A,CE]2 [A,CE]2!ped-up! | %283
!ped! [A,,A,]2 [A,CE]2 [A,CE]2!ped-up! |!ped! [F,,F,]2 [^A,EF]2 [A,EF]2!ped-up! | %285
!ped! [B,,B,]2 [B,DF]2 [F,,F,]2!ped-up! |!ped! [B,,B,]2 [B,DF]2 [B,DF]2!ped-up! | %287
!ped! [B,,B,]2 [B,DF]2 [B,DF]2!ped-up! |!ped! [B,,B,]2 [B,DF]2 [B,DF]2!ped-up! | %289
!ped! [E,,E,]2 [A,,A,]2 [C,C]2!ped-up! | [E,,E,]2 z2 z2 | %291
!ped! [E,,E,]2 [E,G,B,D]2 [E,G,B,D]2!ped-up! |!ped! [E,,E,]2 [E,G,B,D]2 [E,G,B,D]2!ped-up! |1 %293
!ped! [A,,,A,,]3 [A,,C,E,A,] [A,,C,E,A,]2!ped-up! |!ped! z6!ped-up! :|3 %295
!fff!!ped! [A,,,A,,]3 [A,,C,E,A,] [A,,C,E,A,]2!ped-up! | [A,,C,E,A,]2 z4 ||[K:D]!mp! z2 | %298
!p!!ped! A,2!ped-up! [CE]2 [CE]2 |!ped! A,2 [CE]2 [CE]2!ped-up! |!ped! A,2 [EG]2 [EG]2!ped-up! | %301
!ped! A,2 [EG]2 [EG]2!ped-up! |!ped! A,2 [DF]2 [DF]2!ped-up! |!ped! A,2 [DF]2 [DF]2!ped-up! | %304
!ped! A,2 [=C^DF]2 [CDF]2!ped-up! |!ped! A,2 [=C^DF]2 [CDF]2!ped-up! | %306
!ped! [A,^CEG]2 [A,CEG]2 [A,CEG]2!ped-up! |!ped! [A,CEG]2 [A,CEG]2 [A,CEG]2!ped-up! | %308
!ped! [A,CEG]2 z2 z2!ped-up! |!ped! [A,CEG]2 z2!ped-up! z2 |!ped! [A,CEG]2 [A,C]2!ped-up! [A,D]2 | %311
 [A,C]2 z2 z2 | z2 z2 [EG]2 | [A,E]2 z2 z2 | z2 z2 [EG]2 | [A,E]2!mf! z2 z2 | %316
!mp!!ped! E,2 [A,CG]2!ped-up! [A,CG]2 |!ped! A,,2 [A,CG]2 [A,CG]2!ped-up! | %318
!ped! A,2 [CG]2 [CG]2!ped-up! |!ped! A,,2 [A,CG]2 [A,CG]2!ped-up! | %320
!ped! D,2 [A,DF]2 [A,DF]2!ped-up! |!ped! A,,2 [A,DF]2 [A,DF]2!ped-up! | %322
!ped! D,2 [A,DF]2 [A,DF]2!ped-up! |!ped! A,,2 [A,DF]2 [A,DF]2!ped-up! | %324
!ped! E,2 [A,CG]2 [A,CG]2!ped-up! |!ped! A,,2 [A,CG]2 [A,CG]2!ped-up! | %326
!ped! A,2 [CG]2 [CG]2!ped-up! |!ped! A,,2 [A,CG]2 [A,CG]2!ped-up! |!ped! D2 C2 =C2!ped-up! | %329
!ped! ^D,4 E,2!ped-up! |!ped! A,,2 [A,D]2!ped-up!!ped! [A,,A,]2!ped-up! | [D,,D,]2 z2 z2 | %332
!pp! D,2 [=CDF]2 [=CDF]2 | D,2 [_B,DG]2 [B,DG]2 | D,2 [=CDF]2 [=CDF]2 |!ped! G,2 _B,2 D2!ped-up! | %336
!mp! A,,2 [A,^CG]2 [A,CG]2 | A,,2 [A,D=F]2 [A,DF]2 | A,,2 [A,^CG]2 [A,CG]2 | %339
!mp! D,2 [A,D=F]2 [A,DF]2 |!ped! [_B,,D,=F,]2 z2 z2!ped-up! |!ped! [_B,,D,=F,]2!ped-up! z2 z2 | %342
!ped! z2!ped-up!!f! [_B,,D,=F,][B,,D,F,] [B,,D,F,]2 | %343
!ped! [_B,,D,E,]2 [B,,D,E,]2 [B,,D,E,]2!ped-up! | [A,,^C,E,]2 z2 z2 |!p! A,6 | _B,6 | =C6 | %348
 z2 z2 z2 ||[K:F]!p!!ped! F,2 [A,CF]2 [A,CF]2!ped-up! |!p!!ped! F,2 [A,CF]2 [A,CF]2!ped-up! | %351
!ped! G,2 [_B,CE]2 [B,CE]2!ped-up! |!ped! C,2 [B,CE]2 [B,CE]2!ped-up! | %353
!ped! G,2 [B,CE]2 [B,CE]2!ped-up! |!ped! C,2 [B,CE]2 [B,CE]2!ped-up! | %355
!ped! F,2 [A,CF]2 [A,CF]2!ped-up! |!ped! F,2!p! [A,CF]2 [A,CF]2!ped-up! | %357
!ped! F,2 [A,CF]2 [A,CF]2!ped-up! |!ped! F,2 [A,CF]2 [A,CF]2!ped-up! | %359
!ped! B,,2 [B,DG]2 [B,DG]2!ped-up! |!ped! B,,2 [B,DG]2 [B,DG]2!ped-up! | %361
!ped! [A,,D,F,]2 z2 F,2!ped-up! |!ped! F,2!mf! G,2 ^G,2!ped-up! | %363
!ped! !1![A,,E,A,]2 !1![E,G,A,]2 !1![A,,E,G,A,]2!ped-up! | %364
!ped! [A,,D,F,A,]2 [D,F,A,]2 [A,,D,F,A,]2!ped-up! | %365
!ped! !1![A,,G,A,]2 !1![^C,G,A,]2 !1![A,,G,A,]2!ped-up! | %366
!ped! [A,,^F,A,]2 [D,F,A,]2 [A,,F,A,]2!ped-up! |[K:treble]!ped! [EG]2 [EG]2 [EG]2!ped-up! | %368
!ped! [EG]2 [EG]2 [EG]2!ped-up! |!ped! [EG]2 [EG]2 [EG]2!ped-up! |!ped! [EG]2 [EG]2 [EG]2!ped-up! | %371
 [A,EG]2 z2 z2 |!mf! [A,EG]2 z2 z2 | [A,EG]2 z2 z2 ||[K:D][K:bass] z6 | %375
!pp!!ped! D,2 [A,DF]2 [A,DF]2!ped-up! |!ped! D,2 [A,DF]2 [A,DF]2!ped-up! | D,2 [F,A,D]2 [F,A,]2 | %378
!ped! D,2!ped-up! [A,D]2 [A,DF]2 |!ped! E,2 [A,CG]2 [A,CG]2!ped-up! | %380
!ped! E,2 [A,CG]2 [A,CG]2!ped-up! | E,2 [G,A,C]2!p! [G,A,]2 | %382
!ped! E,2!ped-up!!p! [G,A,C]2 [G,A,C]2 |!ped! E,2 [A,CG]2 [A,CG]2!ped-up! | %384
!ped! E,2 [A,CG]2 [A,CG]2!ped-up! | E,2 [G,A,C]2 [G,A,]2 |!mp!!ped! E,2 [G,A,C]2 [G,A,C]2!ped-up! | %387
!ped! D,2 [A,DF]2 [A,DF]2!ped-up! |!ped! D,2 [A,DF]2 [A,DF]2!ped-up! | %389
 D,2 [F,A,D]2!ped-up!!ped! [F,A,]2 | D,2 [A,D]2 [A,DF]2 | %391
!mp!!ped! [F,,F,]2 [A,DF]2 [A,DF]2!ped-up! |!ped! [F,,F,]2 [A,DF]2 [A,DF]2!ped-up! | %393
 [F,,F,]2 [D,F,A,]2!ped-up!!mf!!ped! [D,F,A,]2 | [F,,F,]2 [D,F,A,]2 [D,F,A,]2 | %395
!ped! [G,,G,]2 [B,,D,E,]2!ped-up! [B,,D,E,]2 |!ped! [G,,G,]2 [B,,D,E,]2 [B,,D,E,]2!ped-up! | %397
 [G,,B,,D,E,]2 z2!f!!ped! E,2!ped-up! | E,2 G,2 B, z |!ped! [E,,E,]2 [A,CG]2 [A,CG]2!ped-up! | %400
!ped! [A,,,A,,]2 [A,CG]2 [A,CG]2!ped-up! |!ped! [D,,D,]2 [A,DF]2 [A,DF]2!ped-up! | %402
!ped! [F,,F,]2 [A,DF]2 [A,DF]2!ped-up! |!ped! [G,,B,,D,E,]6!ped-up! |!ped! [A,,E,G,]6!ped-up! | %405
 z6 |!p! z6 |!pp!!ped! D,2 [=CDF]2 [CDF]2!ped-up! |!ped! D,2 [=CDF]2 [CDF]2!ped-up! | %409
!ped! D,2 [=CDF]2 C2!ped-up! |!ped! D,2 [=CD]2!ped-up! [CD]2 |!ped! D,2 [B,D]2 [B,D]2!ped-up! | %412
!ped! D,2 [=CD]2 [CD]2!ped-up! |!ped! D,2 [G,B,D]2 G,2!ped-up! |!ped! D,2 [G,B,]2!ped-up! [G,B,]2 | %415
!ped! D,2 [G,A,^C]2 [G,A,C]2!ped-up! |!ped! D,2 [G,A,D]2 [G,A,D]2!ped-up! | %417
!ped! D,2 [G,A,E]2 [G,A,E]2!ped-up! | D,2 [G,A,E]2 [G,A,E]2 | D,2 [F,A,D]2 [F,A,D]2 | %420
!ped! D,2 [F,A,D]2 [F,A,D]2!ped-up! | D,2 [F,A,D]2 [F,A,D]2 |!ped! D,2 [F,A,D]2 [F,A,D]2!ped-up! | %423
!ped! D,2 [F,=CD]2 [F,CD]2!ped-up! |!ped! D,2 [F,=CD]2 [F,CD]2!ped-up! | %425
!ped! D,2 [F,=CD]2 [F,CD]2!ped-up! |!ped! D,2 [F,=CD]2 [F,CD]2!ped-up! | %427
!ped! D,2 [G,B,D]2 [G,B,D]2!ped-up! |!ped! D,2 [G,B,D]2 [G,B,D]2!ped-up! | %429
!ped! D,2 [G,B,D]2 [G,B,D]2!ped-up! |!ped! D,2 [G,B,D]2 [G,B,D]2!ped-up! | %431
!ped! D,2 [G,A,C]2 [G,A,C]2!ped-up! |!ped! D,2 [G,A,D]2 [G,A,D]2!ped-up! | %433
!pp!!ped!!<(! D,2 [G,A,E]2 [G,A,E]2!ped-up! |!ped! D,2!ped-up! [G,A,E]2!<)!!f! [G,A,E]2 | %435
 !>![D,F,A,]2 [D,F,A,]2 [D,F,A,]2 |!ped! [D,F,A,]2 [D,F,A,]2 [D,F,A,]2!ped-up! | %437
!ped! [D,F,A,]2 [D,F,A,]2!ped-up! [D,F,A,]2 |!ped! [D,F,A,]2 [D,F,A,]2!ped-up! [D,F,A,]2 | %439
!ped! !>![D,F,A,D]2 z2!ped-up! z2 |!ped! !>![D,F,A,D]2!ped-up! z2 z2 | %441
!ped! !>![D,F,A,D]2!ped-up! z2 z2 |!ped! !>![D,F,A,D]2!ped-up! z2 z2 | !>![D,,D,]2 z2 z2 | %444
 !>![D,F,A,D]2 z2 z3/2!8vb(! [D,,,D,,]/!8vb)! |!8vb(! !fermata![D,,,D,,]6!8vb)! |] %446
V:3
 x6 | x3[K:treble] x3 | E6- | E3[K:bass] z x2 | x3[K:treble+8] x3 | x3[K:treble] x3 | %6
 E,,3[K:treble+8] x x2 | x3[K:treble] x3 | =G,,3[K:treble+8] x x2 | x3[K:treble] x3 | %10
 F,,3[K:treble+8] x z z | x3[K:treble] x3 | =F,,3[K:treble+8] x z z | x3[K:treble] x3 | %14
 E,,3[K:treble+8] x x2 | x3[K:treble] x3 | x3[K:treble+8] x3 | x3[K:treble] x3 | %18
 E,,3[K:treble+8] x x2 | x3[K:treble] x3 | x6 | B, x x4 ||[K:D][M:3/4] A,2 A,2 A,2 | A,2 A,2 A,2 | %24
 A,2 A,2 A,2 | x6 | x6 | A,2 A,2 A,2 | A,2 A,2 A,2 | x6 | x6 | x6 | x6 | x6 | x6 | x6 | x6 | x6 | %38
 x6 | x6 | x6 |[K:bass] x6 | x6 | x6 ||[M:3/4] x6 | x6 | x6 | x6 | x6 | x6 | x6 | x6 | x6 | x6 | %54
 x6 | x6 | x6 | x6 | x6 | x6 | x6 | x6 | x6 | x6 | x6 | x6 | x6 | x6 | x6 | x6 | x6 | x6 | x6 | %73
 x6 | x6 | x6 ||[K:A] x6 |: x6 | x6 | x6 | x6 | x6 | x6 | x6 | x6 | x6 | x6 | x6 | x6 | B,4 A,2 | %90
 x6 | x6 |1 x6 :|2 x6 |:[K:D] x6 | x6 | x6 | x6 | x6 | x6 | x6 | x6 | x6 | x6 | x6 | x6 | D,6 | %107
 =G,,6 | x6 |1 x6 :|2 x6 ||[K:Bb] x6 | x6 | x6 | x6 | x6 | x6 | x6 | x6 | x6 | x6 | x6 | x6 | D,6 | %124
 D,6 | x6 | x6 ||[K:D] x6 | x6 | x6 | x6 | x6 | x6 | x6 | x6 | x6 | x6 | x6 | x6 | D,6 | =G,,6 | %141
 x6 | x6 ||[K:G] x2 |: x6 | x6 | x6 | x6 | x6 | x6 | x6 | x6 | x6 | x6 | x6 | x6 | x6 | x6 |1 x6 | %159
 x6 :|2 x6 | x6 |: x6 | x6 | x6 | x6 | x6 | x6 | x6 | x6 | x6 | x6 | x6 | x6 | x6 | x6 | x6 |1 %177
 x6 :|2 x6 ||[K:F] x6 | x6 | x6 |] x6 | x6 | x6 | x6 | x6 | x6 | x6 | x6 | x6 | x6 | x6 | x6 | x6 | %195
 x6 | x6 | x6 | x6 | x6 | x6 | x6 | x6 | x6 | x6 | x6 | x6 | x6 | x6 | x6 | x6 | x6 | [B,,D,]6 | %213
 x6 | x6 |: x6 | x6 | x6 | x6 | x6 | x6 | x6 | x6 | x6 | x6 | x6 | x6 | x6 | x6 | x6 |1 x6 :|2 %231
 x6 ||[K:A] x6 | x6 | x6 | x6 | x6 | x6 | x6 | x6 |[K:treble] x6 | x6 | x6 |:[K:bass] x6 | x6 | %245
 x6 | x6 | x6 | x6 | x6 | x6 | x6 | x6 | x6 | x6 |1 x6 | x6 | x6 | x6 :|2 x6 | x6 | x6 | x6 || x6 | %264
 x6 | x6 | x6 | x6 | x6 | x6 | x6 | x6 | x6 | x6 | x6 | x6 | x6 | x6 | x6 | x6 | x6 | x6 | x6 | %283
 x6 | x6 | x6 | x6 | x6 | x6 | x6 | x6 | x6 | x6 |1 x6 | x6 :|3 x6 | x6 ||[K:D] x2 | x6 | x6 | x6 | %301
 x6 | x6 | x6 | x6 | x6 | x6 | x6 | x6 | x6 | x6 | x6 | x6 | x6 | x6 | x6 | x6 | x6 | x6 | x6 | %320
 x6 | x6 | x6 | x6 | x6 | x6 | x6 | x6 | D,6 | G,,6 | x6 | x6 | x6 | x6 | x6 | x6 | x6 | x6 | x6 | %339
 x6 | x6 | x6 | x6 | x6 | x6 | x6 | x6 | x6 | x6 ||[K:F] x6 | x6 | x6 | x6 | x6 | x6 | x6 | x6 | %357
 x6 | x6 | x6 | x6 | x6 | [B,,D,]6 | x6 | x6 | x6 | x6 |[K:treble] A,2 z2 A,2 | _B,2 z2 _B,2 | %369
 =B,2 z2 =B,2 | _B,2 z2 _B,2 | x6 | x6 | x6 ||[K:D][K:bass] x6 | x6 | x6 | x6 | x6 | x6 | x6 | x6 | %382
 x6 | x6 | x6 | x6 | x6 | x6 | x6 | x6 | x6 | x6 | x6 | x6 | x6 | x6 | x6 | x6 | x6 | x6 | x6 | %401
 x6 | x6 | x6 | x6 | x6 | x6 | x6 | x6 | x6 | x6 | x6 | x6 | x6 | x6 | x6 | x6 | x6 | x6 | x6 | %420
 x6 | x6 | x6 | x6 | x6 | x6 | x6 | x6 | x6 | x6 | x6 | x6 | x6 | x6 | x6 | x6 | x6 | x6 | x6 | %439
 x6 | x6 | x6 | x6 | x6 | x11/2!8vb(! x/!8vb)! |!8vb(! x6!8vb)! |] %446
V:4
 x6 | x6 | x6 | x6 | x6 | x6 | x6 | x6 | x6 | x6 | x6 | x6 | x6 | x6 | x6 | x6 | x6 | x6 | x6 | %19
 x6 | x6 | x6 ||[K:D][M:3/4] x6 | x6 | x6 | z A z A z A | x5 A | x6 | x6 | x6 | x6 | x6 | x6 | x6 | %34
 x6 | x6 | x6 | x6 | x6 | x6 | x6 | x6 | x6 | x6 ||[M:3/4] x6 | z2 z2{/A} [fa]2 | %46
 [fa]2 z2{/A} [df]2 | [df]2 z2 x2 | x6 | z2 z2{/A} [ga]2 | [ga]2 z2{/A} [cg]2 | [cg]2 z2 x2 | x6 | %53
 z2 z2{/c} [gb]2 | [gb]2 z2{/c} [cg]2 | [cg]2 z2 x2 | x6 | z2 z2{/d} [dfb]2 | [dfb]2 z2{/d} [df]2 | %59
 [df]2 z2 x2 | x6 | z2 z2{/d} [ad']2 | [ad']2 z2{/d} [fa]2 | [fa]2 z2 x2 | x6 | z2 z2{/d} [bd']2 | %66
 [bd']2 z2{/d} [deb]2 | [eb]2 z2 x2 | x6 | x6 | x6 | x6 | x6 | B6 | c6 | x6 ||[K:A] x6 |: x6 | x6 | %79
 x6 | x6 | x6 | x6 | x6 | x6 | x6 | x6 | x6 | x6 | x6 | x6 | x6 |1 x6 :|2 x6 |:[K:D] x6 | x6 | x6 | %97
 x6 | x6 | x6 | x6 | x6 | x6 | x6 | x6 | x6 | x6 | x6 | x4 =G2 |1 x6 :|2 x6 ||[K:Bb] x6 | x6 | x6 | %114
 x6 | x6 | x6 | x6 | x6 | x6 | x6 | x6 | x6 | x6 | x6 | x6 | x6 ||[K:D] x6 | x6 | x6 | x6 | x6 | %132
 x6 | x6 | x6 | x6 | x6 | x6 | x6 | x6 | x6 | x2 x2 =G2 | x6 ||[K:G] x2 |: x6 | x6 | x6 | x6 | x6 | %149
 x6 | x6 | x6 | x6 | x6 | x6 | x6 | x6 | x6 |1 x6 | x6 :|2 x6 | x6 |: x6 | x6 | x6 | x6 | x6 | x6 | %168
 x6 | x6 | x6 | x6 | x6 | x6 | x6 | x6 | x6 |1 x6 :|2 x6 ||[K:F] x6 | x6 | x6 |] x6 | x6 | x6 | %185
 x6 | x6 | x6 | x6 | x6 | x6 | x6 | x6 | x6 | x6 | x6 | x6 | x6 | x6 | x6 | x6 | x6 | x6 | x6 | %204
 x6 | x6 | x6 | x6 | x6 | x6 | x6 | x6 | x6 | x6 | x7/4 d'/4 x4 |: x6 | x7/4 d'/4 x4 | x6 | x6 | %219
 x6 | x6 | x6 | x6 | x6 | x7/4 d'/4 x4 | x6 | x6 | x6 | x6 | x6 |1 x7/4 d'/4 x4 :|2 x6 ||[K:A] x6 | %233
 x6 | x6 | x6 | x6 | x6 | x6 | x6 |!8va(! x6!8va)! |!8va(! x6!8va)! | x6 |: x6 | x6 | %245
 z2 !>!A2 !>!=G2 | !>!F2 E2 D2 | C2 x4 | x6 | z2 !>!A2 !>!F2 | !>!E2 D2 C2 | x6 | x6 | x6 | x6 |1 %255
 x6 | x6 | x6 | x6 :|2 x6 | x6 | x6 | x6 || x6 | x6 | x6 | x6 | x6 | x6 | x6 | x6 | x6 | x6 | x6 | %274
 x6 | x6 | x6 | x6 | x6 | x6 | x6 | x6 | x6 | x6 | x6 | x6 | x6 | x6 | x6 | x6 | x6 | x6 | x6 |1 %293
 x6 | x6 :|3 x6 | x6 ||[K:D] x2 | x6 | x6 | x6 | x6 | x6 | x6 | x6 | x6 | x6 | x6 | x6 | x6 | x6 | %311
 x6 | x6 | x6 | x6 | x6 | x6 | x6 | x6 | x6 | x6 | x6 | x6 | x6 | x6 | x6 | x6 | x6 | x6 | x6 | %330
 x6 | x6 | x6 | x6 | x6 | x6 | x6 | x6 | x6 | x6 | x6 | x6 | x6 | x6 | x6 | x6 | x6 | x6 | x6 || %349
[K:F] x6 | x6 | x6 | x6 | x6 | x6 | x6 | x6 | x6 | x6 | x6 | x6 | x6 | x6 | ^c6 | d6 | e6 | ^f6 | %367
 g6 | g6 | g6 | g6 | x6 | x6 | x6 ||[K:D] x6 | z2 z2{/A} [fa]2 | [fa]2 z2{/A} [df]2 | [df]2 z2 x2 | %378
 x6 | z2 z2{/A} [ga]2 | [ga]2 z2{/A} [cg]2 | [cg]2 z2 x2 | x6 | z2 z2{/c} [gb]2 | %384
 [gb]2 z2{/c} [cg]2 | [cg]2 z2 x2 | x6 | z2 z2{/d} [dfb]2 | [dfb]2 z2{/d} [df]2 | [df]2 z2 x2 | %390
 x6 | z2 z2{/d} [ad']2 | [ad']2 z2{/d} [fa]2 | [fa]2 z2 x2 | x6 | z2 z2{/d} [bd']2 | %396
 [bd']2 z2{/d} [deb]2 | [eb]2 z2 x2 | x6 | x6 | x6 | x6 | x6 | B6 | c4 x2 | x6 | x6 | x6 | x6 | %409
 x6 | x6 | x6 | x6 | x6 | x6 | x6 | x6 | x6 | x6 | x6 | x6 | x6 | x6 | x6 | x6 | x6 | x6 | x6 | %428
 x6 | x6 | x6 | x6 | x6 | x6 | x6 | x6 | x6 | x6 | x6 | x6 | x6 | x6 | x6 | x6 | x11/2[K:bass] x/ | %445
 x6 |] %446

